icons/snowy-fill.svg

<svg viewBox="0 0 24 24" fill="currentColor" xmlns="http://www.w3.org/2000/svg"><path d="M6.02679 17.4293C3.08078 16.2492 1 13.3676 1 10C1 5.58172 4.58172 2 9 2C12.3949 2 15.2959 4.11466 16.4576 7.09864C16.7951 7.0339 17.1436 7 17.5 7C20.5376 7 23 9.46243 23 12.5C23 15.369 20.8032 17.725 18 17.9776C17.9879 14.6742 15.3062 12 12 12C8.87879 12 6.31421 14.3833 6.02679 17.4293ZM13 16.268L14.9641 15.134L15.9641 16.866L14 18L15.9641 19.134L14.9641 20.866L13 19.732V22H11V19.732L9.0359 20.866L8.0359 19.134L10 18L8.0359 16.866L9.0359 15.134L11 16.268V14H13V16.268Z"/></svg>

<svg xmlns="http://www.w3.org/2000/svg" viewBox="0 0 24 24">
    <g>
        <path fill="none" d="M0 0h24v24H0z"/>
        <path d="M6.027 17.43A8.003 8.003 0 0 1 9 2a8.003 8.003 0 0 1 7.458 5.099A5.5 5.5 0 0 1 18 17.978a6 6 0 0 0-11.973-.549zM13 16.267l1.964-1.134 1 1.732L14 18l1.964 1.134-1 1.732L13 19.732V22h-2v-2.268l-1.964 1.134-1-1.732L10 18l-1.964-1.134 1-1.732L11 16.268V14h2v2.268z"/>
    </g>
</svg>
